space-invaders.svg

<svg fill="currentColor" viewBox="0 0 24 24"><path d="M7 6H5V4h2zm10 0h2V4h-2zm6 6v6h-2v-4h-2v4h-2v-2H7v2H5v-4H3v4H1v-6h2v-2h2V8h2V6h2v2h6V6h2v2h2v2h2v2zm-8-2v2h2v-2zm-8 2h2v-2H7zm4 6H7v2h4zm6 0h-4v2h4z"/></svg>

<svg  viewBox="0 0 24 24" fill="currentColor"><path  d="M7,6H5V4H7V6M17,6H19V4H17V6M23,12V18H21V14H19V18H17V16H7V18H5V14H3V18H1V12H3V10H5V8H7V6H9V8H15V6H17V8H19V10H21V12H23M15,10V12H17V10H15M7,12H9V10H7V12M11,18H7V20H11V18M17,18H13V20H17V18Z"/></svg>
